X:3
T:Ode to Joy (D natural minor adaptation)
C:Ludwig van Beethoven (1770-1827), PD; adapted for D natural minor
M:4/4
L:1/8
Q:1/4=84
K:Dmin
%% Transposed to fit D natural minor scale on this drum
f2 f2 g2 a2 | a2 g2 f2 e2 | d2 d2 e2 f2 | f3 e e4 |
f2 f2 g2 a2 | a2 g2 f2 e2 | d2 d2 e2 f2 | e3 d d4 |
e2 e2 f2 d2 | e2 f2 g2 f2 | d2 e2 f2 g2 | f2 e2 d2 A2 |
f2 f2 g2 a2 | a2 g2 f2 e2 | d2 d2 e2 f2 | e3 d d4 |
